X:3897
L:1/16
Q:1/8=80
M:3/4
K:G
"^with feeling" GABc | d2g2 gfdc B2cA | B2>A2 G2FG ABcA |1 d2g2 gfdc A2>G2 | G6 z2 :|2 
 d2g2 d2>B2 c2>B2 | G2>G2 G4 z2 || (3Bcd | b4 a2ba gfba | g2>f2 d2c2 d2de | =f2a2 ba/g/ed eg^fa | 
 g4 G2g2 b2a2 | g2>a2 (3bag (3fdc B2cA | B2>A2 G2FG ABcA | d2g2 d2>B2 c2>B2 | G2>G2 !fermata!G8 ||

